X: 17817
T: Hop, Skip, Jump!
R: slide
M: 12/8
K: Dmajor
|:E|D2 F A2 d B2 A F2 E|DFA d2 e f3 fgf|
e2 d B2 d A2 F D2 E|1 FED A2 F E3 FGE:|2 FED A2 F E3 e2 f||
|:g2 f edB AFA d2 e|f2 e2 de f2 B b2 a|
g2 f edB AFA d2 e|1 fed A2 F E3 e2 f:|2 fed BAF E3 E3||

